packages/foundations/assets/icons/functional/images/medical/mask_24.svg

<svg width="24" height="24" viewBox="0 0 24 24" fill="none" xmlns="http://www.w3.org/2000/svg">
<g clip-path="url(#clip0_186_215)">
<path fill-rule="evenodd" clip-rule="evenodd" d="M12 12.9055C15.0937 12.9055 18.375 14.0618 19.4687 14.9993H21C21.5625 14.9993 22 15.468 22 15.9993C22 16.562 21.5625 16.9993 21 16.9993H19.7187C18.4731 20.0071 15.5438 21.981 12.2805 22.0309L12 22.0305C8.62503 22.093 5.56254 20.093 4.2813 16.9993H3.00006C2.43756 16.9993 2.00006 16.562 2.00006 15.9993C2.00006 15.468 2.43756 14.9993 3.00006 14.9993H4.5313C5.62504 14.0618 8.90628 12.9055 12 12.9055ZM12 14.9055C9.96877 14.9368 8.00003 15.4055 6.18754 16.3118C7.15629 18.6243 9.46877 20.1243 12 20.0305C14.5312 20.1243 16.8437 18.6243 17.8437 16.3118C16.0312 15.4055 14.0312 14.9368 12 14.9055ZM13.5313 16.2493C14.0937 16.2493 14.5312 16.6868 14.5312 17.2493C14.5312 18.1868 13.4063 18.468 12 18.468C10.6875 18.468 9.46877 18.2805 9.46877 17.2493C9.46877 16.718 9.90627 16.2493 10.4375 16.2493C10.5625 16.2493 11.2188 16.468 12 16.468C12.4063 16.468 12.8438 16.2493 13.5313 16.2493ZM12 1.96809C16.75 1.96809 20.5937 5.81179 20.5937 10.5931C20.5937 11.1243 20.1562 11.5931 19.5937 11.5931C19.0625 11.5931 18.625 11.1243 18.625 10.5931C18.625 6.93679 15.6562 3.96809 12 3.96809C8.31253 3.96809 5.37504 6.93679 5.37504 10.5931C5.37504 11.1556 4.9063 11.5931 4.3438 11.5931C3.81255 11.5931 3.37505 11.0931 3.37505 10.5931C3.4063 5.81179 7.21878 1.96809 12 1.96809Z" fill="#1A1C1F"/>
</g>
<defs>
<clipPath id="clip0_186_215">
<rect width="24" height="24" fill="white"/>
</clipPath>
</defs>
</svg>

<svg xmlns="http://www.w3.org/2000/svg" width="24" height="24" fill="none"><g clip-path="url(#a)"><path fill="#1A1C1F" fill-rule="evenodd" d="M12 12.906c3.094 0 6.375 1.156 7.469 2.093H21c.563 0 1 .469 1 1 0 .563-.437 1-1 1h-1.281a8.18 8.18 0 0 1-7.439 5.032H12c-3.375.062-6.437-1.938-7.719-5.032h-1.28c-.563 0-1-.437-1-1 0-.531.437-1 1-1h1.53c1.094-.937 4.375-2.094 7.469-2.094m0 2c-2.031.03-4 .5-5.812 1.406A6.07 6.07 0 0 0 12 20.03c2.531.094 4.844-1.406 5.844-3.718A13.5 13.5 0 0 0 12 14.905m1.531 1.343c.563 0 1 .438 1 1 0 .938-1.125 1.219-2.531 1.219-1.312 0-2.531-.187-2.531-1.219 0-.531.437-1 .969-1 .124 0 .78.219 1.562.219.406 0 .844-.219 1.531-.219M12 1.97c4.75 0 8.594 3.843 8.594 8.624 0 .531-.438 1-1 1-.532 0-.969-.469-.969-1A6.63 6.63 0 0 0 12 3.968a6.61 6.61 0 0 0-6.625 6.625c0 .563-.469 1-1.031 1-.531 0-.969-.5-.969-1C3.406 5.812 7.219 1.968 12 1.968" clip-rule="evenodd"/></g><defs><clipPath id="a"><path fill="#fff" d="M0 0h24v24H0z"/></clipPath></defs></svg>
